app/img/s2.svg

<?xml version="1.0" encoding="UTF-8"?>
<svg width="36px" height="36px" viewBox="0 0 36 36" version="1.1" xmlns="http://www.w3.org/2000/svg" xmlns:xlink="http://www.w3.org/1999/xlink">
    <!-- Generator: Sketch 52.2 (67145) - http://www.bohemiancoding.com/sketch -->
    <title>Group 17 Copy</title>
    <desc>Created with Sketch.</desc>
    <g id="Overview" stroke="none" stroke-width="1" fill="none" fill-rule="evenodd">
        <g id="LD_Main_m" transform="translate(-24.000000, -476.000000)">
            <g id="Group-6" transform="translate(24.000000, 467.000000)">
                <g id="Group-2">
                    <g id="Group-17-Copy" transform="translate(0.000000, 9.000000)">
                        <path d="M3.8511,2 C2.8301,2 2.0001,2.83 2.0001,3.851 C2.0001,4.871 2.8301,5.701 3.8511,5.701 L20.5801,5.701 C21.6011,5.701 22.4311,4.871 22.4311,3.851 C22.4311,2.83 21.6011,2 20.5801,2 L3.8511,2 Z M20.5801,7.701 L3.8511,7.701 C1.7271,7.701 0.0001,5.974 0.0001,3.851 C0.0001,1.728 1.7271,0 3.8511,0 L20.5801,0 C22.7041,0 24.4311,1.728 24.4311,3.851 C24.4311,5.974 22.7041,7.701 20.5801,7.701 Z" id="Fill-1" fill="#67757C"></path>
                        <path d="M12.1445,7.7168 C11.1235,7.7168 10.2935,8.5478 10.2935,9.5688 C10.2935,10.5888 11.1235,11.4188 12.1445,11.4188 L28.8735,11.4188 C29.8945,11.4188 30.7245,10.5888 30.7245,9.5688 C30.7245,8.5478 29.8945,7.7168 28.8735,7.7168 L12.1445,7.7168 Z M28.8735,13.4188 L12.1445,13.4188 C10.0215,13.4188 8.2935,11.6918 8.2935,9.5688 C8.2935,7.4448 10.0215,5.7168 12.1445,5.7168 L28.8735,5.7168 C30.9975,5.7168 32.7245,7.4448 32.7245,9.5688 C32.7245,11.6918 30.9975,13.4188 28.8735,13.4188 Z" id="Fill-3" fill="#67757C"></path>
                        <path d="M15.9854,19.1055 L6.8694,19.1055 C4.7464,19.1055 3.0194,17.3785 3.0194,15.2555 C3.0194,13.1315 4.7464,11.4035 6.8694,11.4035 L22.2564,11.4035 L22.2564,13.4035 L6.8694,13.4035 C5.8494,13.4035 5.0194,14.2335 5.0194,15.2535 C5.0194,16.2745 5.8494,17.1055 6.8694,17.1055 L15.9854,17.1055 L15.9854,19.1055 Z" id="Fill-5" fill="#67757C"></path>
                        <path d="M13.7236,24.8233 L6.8696,24.8233 C4.7466,24.8233 3.0196,23.0963 3.0196,20.9733 C3.0196,18.8493 4.7466,17.1213 6.8696,17.1213 L15.4706,17.1213 L15.4706,19.1213 L6.8696,19.1213 C5.8496,19.1213 5.0196,19.9513 5.0196,20.9713 C5.0196,21.9923 5.8496,22.8233 6.8696,22.8233 L13.7236,22.8233 L13.7236,24.8233 Z" id="Fill-7" fill="#67757C"></path>
                        <path d="M15.2314,30.5254 L6.8694,30.5254 C4.7464,30.5254 3.0194,28.7974 3.0194,26.6744 C3.0194,24.5504 4.7464,22.8234 6.8694,22.8234 L13.9624,22.8234 L13.9624,24.8234 L6.8694,24.8234 C5.8494,24.8234 5.0194,25.6534 5.0194,26.6724 C5.0194,27.6944 5.8494,28.5254 6.8694,28.5254 L15.2314,28.5254 L15.2314,30.5254 Z" id="Fill-9" fill="#67757C"></path>
                        <path d="M24.3027,14.959 C19.0987,14.959 14.8647,19.192 14.8647,24.397 C14.8647,29.601 19.0987,33.835 24.3027,33.835 C29.5067,33.835 33.7407,29.601 33.7407,24.397 C33.7407,19.192 29.5067,14.959 24.3027,14.959 M24.3027,35.835 C17.9957,35.835 12.8647,30.704 12.8647,24.397 C12.8647,18.09 17.9957,12.959 24.3027,12.959 C30.6097,12.959 35.7407,18.09 35.7407,24.397 C35.7407,30.704 30.6097,35.835 24.3027,35.835" id="Fill-11" fill="#F01429"></path>
                        <path d="M33.1909,24.3965 L31.1909,24.3965 C31.1909,20.5975 28.1009,17.5075 24.3029,17.5075 L24.2119,15.9475 L24.2329,15.5085 C29.2039,15.5085 33.1909,19.4955 33.1909,24.3965" id="Fill-13" fill="#F01429"></path>
                        <path d="M25.9717,24.1846 C25.5347,23.9426 25.0707,23.7586 24.6107,23.5676 C24.3437,23.4566 24.0887,23.3296 23.8627,23.1496 C23.4187,22.7946 23.5047,22.2206 24.0237,21.9936 C24.1707,21.9286 24.3257,21.9076 24.4817,21.8986 C25.0837,21.8666 25.6567,21.9766 26.2017,22.2386 C26.4727,22.3706 26.5627,22.3286 26.6547,22.0456 C26.7507,21.7466 26.8317,21.4436 26.9217,21.1416 C26.9807,20.9396 26.9077,20.8066 26.7167,20.7206 C26.3677,20.5676 26.0087,20.4566 25.6317,20.3966 C25.1387,20.3216 25.1387,20.3186 25.1367,19.8246 C25.1347,19.1276 25.1347,19.1276 24.4357,19.1276 C24.3347,19.1276 24.2327,19.1246 24.1317,19.1276 C23.8057,19.1366 23.7497,19.1946 23.7417,19.5236 C23.7367,19.6696 23.7417,19.8176 23.7387,19.9666 C23.7367,20.4036 23.7347,20.3966 23.3157,20.5486 C22.3037,20.9166 21.6787,21.6066 21.6117,22.7096 C21.5517,23.6876 22.0627,24.3476 22.8647,24.8286 C23.3597,25.1246 23.9067,25.2996 24.4307,25.5316 C24.6357,25.6216 24.8307,25.7246 25.0007,25.8676 C25.5047,26.2836 25.4127,26.9756 24.8147,27.2376 C24.4947,27.3776 24.1577,27.4126 23.8097,27.3696 C23.2747,27.3016 22.7617,27.1626 22.2787,26.9116 C21.9957,26.7636 21.9127,26.8026 21.8167,27.1096 C21.7337,27.3726 21.6597,27.6406 21.5867,27.9076 C21.4877,28.2656 21.5247,28.3506 21.8677,28.5186 C22.3037,28.7306 22.7707,28.8376 23.2467,28.9136 C23.6187,28.9736 23.6307,28.9906 23.6357,29.3756 C23.6377,29.5506 23.6377,29.7286 23.6397,29.9026 C23.6417,30.1236 23.7477,30.2516 23.9757,30.2566 C24.2327,30.2616 24.4927,30.2616 24.7507,30.2546 C24.9617,30.2496 25.0707,30.1346 25.0707,29.9206 C25.0707,29.6816 25.0817,29.4406 25.0727,29.2016 C25.0607,28.9576 25.1667,28.8336 25.4017,28.7696 C25.9417,28.6216 26.4017,28.3316 26.7557,27.9006 C27.7397,26.7046 27.3647,24.9546 25.9717,24.1846" id="Fill-15" fill="#F01429"></path>
                    </g>
                </g>
            </g>
        </g>
    </g>
</svg>

<svg xmlns="http://www.w3.org/2000/svg" width="36" height="36" viewBox="0 0 36 36">
    <g fill="none" fill-rule="evenodd">
        <path fill="#67757C" d="M3.851 2c-1.02 0-1.85.83-1.85 1.851 0 1.02.83 1.85 1.85 1.85h16.73c1.02 0 1.85-.83 1.85-1.85 0-1.021-.83-1.851-1.85-1.851H3.85zm16.73 5.701H3.85a3.854 3.854 0 0 1-3.85-3.85A3.855 3.855 0 0 1 3.85 0h16.73a3.855 3.855 0 0 1 3.85 3.851 3.854 3.854 0 0 1-3.85 3.85z"/>
        <path fill="#67757C" d="M12.145 7.717a1.853 1.853 0 0 0-1.851 1.852c0 1.02.83 1.85 1.85 1.85h16.73c1.02 0 1.85-.83 1.85-1.85 0-1.021-.83-1.852-1.85-1.852h-16.73zm16.729 5.702h-16.73a3.855 3.855 0 0 1-3.85-3.85 3.856 3.856 0 0 1 3.85-3.852h16.73a3.856 3.856 0 0 1 3.85 3.852 3.854 3.854 0 0 1-3.85 3.85z"/>
        <path fill="#67757C" d="M15.985 19.105H6.87a3.854 3.854 0 0 1-3.85-3.85 3.855 3.855 0 0 1 3.85-3.852h15.387v2H6.87a1.852 1.852 0 0 0 0 3.702h9.116v2z"/>
        <path fill="#67757C" d="M13.724 24.823H6.87a3.854 3.854 0 0 1-3.85-3.85 3.855 3.855 0 0 1 3.85-3.852h8.6v2h-8.6a1.852 1.852 0 0 0 0 3.702h6.854v2z"/>
        <path fill="#67757C" d="M15.231 30.525H6.87a3.855 3.855 0 0 1-3.85-3.85 3.854 3.854 0 0 1 3.85-3.852h7.093v2H6.87a1.852 1.852 0 0 0 0 3.702h8.362v2z"/>
        <path fill="#F01429" d="M24.303 14.959c-5.204 0-9.438 4.233-9.438 9.438 0 5.204 4.234 9.438 9.438 9.438 5.204 0 9.438-4.234 9.438-9.438 0-5.205-4.234-9.438-9.438-9.438m0 20.876c-6.307 0-11.438-5.131-11.438-11.438s5.13-11.438 11.438-11.438c6.307 0 11.438 5.131 11.438 11.438S30.61 35.835 24.303 35.835"/>
        <path fill="#F01429" d="M33.19 24.396h-2a6.896 6.896 0 0 0-6.887-6.889l-.091-1.56.02-.438c4.972 0 8.959 3.986 8.959 8.887M25.972 24.185c-.437-.242-.901-.426-1.361-.617a3.065 3.065 0 0 1-.748-.418c-.444-.355-.358-.93.16-1.156.148-.065.303-.086.459-.095a3.478 3.478 0 0 1 1.72.34c.27.132.36.09.453-.193.096-.3.177-.602.267-.904.059-.202-.014-.335-.205-.421a4.419 4.419 0 0 0-1.085-.324c-.493-.075-.493-.078-.495-.572-.002-.697-.002-.697-.701-.697-.101 0-.203-.003-.304 0-.326.009-.382.067-.39.396-.005.146 0 .294-.003.443-.002.437-.004.43-.423.582-1.012.368-1.637 1.058-1.704 2.16-.06.979.45 1.639 1.253 2.12.495.296 1.042.47 1.566.703.205.09.4.193.57.336.504.416.412 1.108-.186 1.37-.32.14-.657.175-1.005.132a4.51 4.51 0 0 1-1.531-.458c-.283-.148-.366-.11-.462.198-.083.263-.157.53-.23.798-.1.358-.062.443.28.61.437.213.904.32 1.38.396.372.06.384.077.389.462l.004.527c.002.22.108.349.336.354.257.005.517.005.775-.002.21-.005.32-.12.32-.334 0-.24.01-.48.002-.72-.012-.243.094-.367.329-.431.54-.148 1-.438 1.354-.87.984-1.195.609-2.945-.784-3.715"/>
    </g>
</svg>
